img/svg/tab-icons/profit-ico.svg

<svg width="24" height="24" viewBox="0 0 24 24" fill="#E0E0E0" xmlns="http://www.w3.org/2000/svg">
<path d="M22.3834 11.7576C21.5475 11.3396 20.4569 11.1094 19.3125 11.1094C18.1681 11.1094 17.0775 11.3396 16.2416 11.7576C15.199 12.2787 14.625 13.0474 14.625 13.9219C14.625 13.9498 14.6255 13.9774 14.6266 14.0049C14.6255 14.0241 14.625 14.0431 14.625 14.0626V15.2209C13.8234 14.8658 12.8377 14.6719 11.8125 14.6719C10.6681 14.6719 9.57751 14.9021 8.74164 15.3201C7.69904 15.8412 7.125 16.6099 7.125 17.4844C7.125 17.4956 7.12555 17.5066 7.12573 17.5178C7.12555 17.5223 7.125 17.5267 7.125 17.5313V21.1876C7.125 21.5102 7.20355 21.8185 7.35461 22.1055C3.96423 21.8654 1.875 19.4429 1.875 15.7032C1.875 13.1038 3.2785 10.693 6.04669 8.53808C6.07635 8.51501 6.10583 8.49267 6.1355 8.46978C4.70819 10.5464 3.98438 12.6785 3.98438 14.8126C3.98438 15.3304 4.40405 15.7501 4.92188 15.7501C5.4397 15.7501 5.85938 15.3304 5.85938 14.8126C5.85938 11.9092 7.54266 8.97277 10.8627 6.08447C10.8777 6.07147 10.8918 6.0592 10.9058 6.04693H13.7355C14.3602 6.31353 16.7587 7.40521 18.8278 9.26959C19.2123 9.6162 19.8052 9.58526 20.1519 9.20074C20.4985 8.81603 20.4675 8.22314 20.0828 7.8767C18.2298 6.20696 16.1885 5.11804 15.0822 4.596L16.342 1.37261C16.3845 1.26385 16.4062 1.14813 16.4062 1.03131V0.937555C16.4062 0.629572 16.255 0.341181 16.0016 0.166132C15.7484 -0.0087337 15.4252 -0.0481014 15.1371 0.0606633C13.0254 0.859369 10.9731 0.859369 8.86322 0.0606633C8.5752 -0.0482845 8.25183 -0.00891679 7.99841 0.166132C7.745 0.341181 7.59375 0.629572 7.59375 0.937555V1.03131C7.59375 1.14813 7.61554 1.26385 7.65802 1.37261L8.91797 4.59637C8.01196 5.02392 6.47827 5.83233 4.93378 7.02819C3.52332 8.1206 2.39465 9.31262 1.57892 10.5718C0.531189 12.189 0 13.9155 0 15.7032C0 18.1553 0.742676 20.2323 2.14746 21.7094C3.51855 23.1512 5.42853 23.9422 7.67102 23.9971C7.67853 23.9975 7.68604 23.9975 7.69336 23.9975L11.8066 24.0001H11.8125H11.8178H11.9291H11.9297C11.9427 24.0001 11.9555 23.9986 11.9683 23.998C13.0556 23.9781 14.0856 23.7508 14.8834 23.3519C15.1382 23.2244 15.3651 23.082 15.5625 22.9271C15.7599 23.0821 15.9866 23.2244 16.2415 23.3519C17.0775 23.7699 18.1681 24.0001 19.3125 24.0001C20.4569 24.0001 21.5475 23.7699 22.3834 23.3519C23.426 22.8307 24 22.0621 24 21.1876V13.9219C24 13.0474 23.426 12.2787 22.3834 11.7576V11.7576ZM13.9499 2.34216L13.2349 4.17193H10.7651L10.0501 2.34234C11.3483 2.59265 12.6515 2.59246 13.9499 2.34216ZM14.0449 21.6748C13.474 21.9603 12.6627 22.1241 11.8182 22.1249H11.8063C10.962 22.1241 10.151 21.9603 9.58008 21.6748C9.10089 21.4353 9 21.22 9 21.1876V19.7678C9.79651 20.1098 10.7823 20.2969 11.8125 20.2969C11.8475 20.2969 11.8824 20.2967 11.9172 20.2964C12.4351 20.2902 12.8498 19.8655 12.8438 19.3479C12.8377 18.8301 12.412 18.4135 11.8953 18.4214C11.8678 18.4217 11.8401 18.4219 11.8125 18.4219C10.966 18.4219 10.1523 18.2579 9.58008 17.9717C9.10089 17.7322 9 17.5168 9 17.4844C9 17.452 9.10089 17.2367 9.58008 16.997C10.1523 16.711 10.966 16.5469 11.8125 16.5469C12.6491 16.5469 13.4586 16.7174 14.0334 17.0146C14.4847 17.2482 14.625 17.4751 14.625 17.5313V21.1876C14.625 21.22 14.5241 21.4353 14.0449 21.6748V21.6748ZM22.125 21.1876C22.125 21.22 22.0241 21.4353 21.5449 21.6748C20.9727 21.961 20.159 22.1251 19.3125 22.1251C18.466 22.1251 17.6523 21.961 17.0801 21.6748C16.6009 21.4353 16.5 21.22 16.5 21.1876V19.7678C17.2965 20.1098 18.2823 20.2969 19.3125 20.2969C19.348 20.2969 19.3834 20.2967 19.4187 20.2962C19.9363 20.2894 20.3505 19.8641 20.3436 19.3464C20.3368 18.8328 19.9186 18.4214 19.4064 18.4214C19.4022 18.4214 19.398 18.4214 19.3938 18.4214C19.3669 18.4217 19.3396 18.4219 19.3125 18.4219C18.466 18.4219 17.6523 18.2579 17.0801 17.9717C16.6009 17.7322 16.5 17.5168 16.5 17.4844V16.206C17.2963 16.5478 18.2827 16.7344 19.3125 16.7344C19.348 16.7344 19.3834 16.7342 19.4187 16.7337C19.9363 16.7269 20.3505 16.3016 20.3436 15.7839C20.3368 15.2661 19.9135 14.8508 19.3938 14.8589C19.3669 14.8592 19.3396 14.8594 19.3125 14.8594C18.466 14.8594 17.6523 14.6954 17.0801 14.4092C16.6009 14.1697 16.5 13.9543 16.5 13.9219C16.5 13.8895 16.6009 13.6742 17.0801 13.4345C17.6523 13.1485 18.466 12.9844 19.3125 12.9844C20.159 12.9844 20.9727 13.1485 21.5449 13.4345C22.0241 13.6742 22.125 13.8893 22.125 13.9219V21.1876Z"/>
</svg>

<svg width="24" height="24" fill="#E0E0E0" xmlns="http://www.w3.org/2000/svg"><path d="M22.383 11.758c-.835-.418-1.926-.649-3.07-.649-1.145 0-2.235.23-3.071.649-1.043.52-1.617 1.29-1.617 2.164 0 .028 0 .055.002.083-.002.02-.002.038-.002.058v1.158c-.802-.355-1.787-.55-2.813-.55-1.144 0-2.234.231-3.07.65-1.043.52-1.617 1.289-1.617 2.163v3.704c0 .322.079.63.23.918-3.39-.24-5.48-2.663-5.48-6.403 0-2.6 1.404-5.01 4.172-7.165l.089-.068c-1.428 2.076-2.152 4.208-2.152 6.343a.937.937 0 101.875 0c0-2.904 1.684-5.84 5.004-8.729l.043-.037h2.83c.624.267 3.023 1.358 5.092 3.223a.938.938 0 001.255-1.393c-1.853-1.67-3.894-2.759-5-3.281l1.259-3.223a.937.937 0 00.064-.342V.938A.938.938 0 0015.137.06c-2.112.798-4.164.798-6.274 0a.938.938 0 00-1.27.877v.093c0 .117.023.233.065.342l1.26 3.223a22.018 22.018 0 00-3.984 2.432c-1.41 1.093-2.54 2.285-3.355 3.544C.53 12.189 0 13.916 0 15.703c0 2.452.743 4.53 2.147 6.006 1.372 1.442 3.282 2.233 5.524 2.288a.42.42 0 00.022 0l4.114.003h.122l.04-.002c1.087-.02 2.117-.247 2.914-.646.255-.128.482-.27.68-.425.197.155.424.297.678.425.837.418 1.927.648 3.072.648 1.144 0 2.235-.23 3.07-.648C23.426 22.83 24 22.062 24 21.188v-7.266c0-.875-.574-1.643-1.617-2.164zM13.95 2.342l-.715 1.83h-2.47l-.715-1.83c1.298.25 2.601.25 3.9 0zm.095 19.333c-.571.285-1.382.45-2.227.45h-.012c-.844 0-1.655-.165-2.226-.45-.48-.24-.58-.455-.58-.487v-1.42c.797.342 1.782.529 2.813.529h.104a.938.938 0 00-.022-1.876h-.082c-.847 0-1.66-.163-2.233-.45-.48-.239-.58-.454-.58-.487 0-.032.1-.247.58-.487.572-.286 1.386-.45 2.232-.45.837 0 1.647.17 2.221.468.452.233.592.46.592.516v3.657c0 .032-.1.247-.58.487zm8.08-.487c0 .032-.1.247-.58.487-.572.286-1.386.45-2.233.45-.846 0-1.66-.164-2.232-.45-.48-.24-.58-.455-.58-.487v-1.42c.797.342 1.782.529 2.813.529h.106a.937.937 0 00-.013-1.876h-.093c-.847 0-1.66-.163-2.233-.45-.48-.239-.58-.454-.58-.487v-1.278c.796.342 1.783.528 2.813.528h.106a.937.937 0 10-.025-1.875h-.081c-.847 0-1.66-.164-2.233-.45-.48-.24-.58-.455-.58-.487 0-.033.1-.248.58-.488.572-.285 1.386-.45 2.233-.45.846 0 1.66.165 2.232.45.48.24.58.455.58.488v7.266z"/></svg>
